X:1
T:Title
%%score { 1 | 2 }
L:1/8
M:2/4
K:F
V:1 treble nm="Grand Piano"
V:2 bass 
V:1
 z2 z[Q:1/4=85] C | FF F[EG] | A F2 F | [EG][EG] [Ac][GB] | A3 C | F[CF] [DF][EG] | A F2 A | %7
 Gc =BG |[M:3/8] [Ec]3 |[M:1/8] [Ac] |[M:2/4] [GB][EG] [CE][Ed] | [Fc] [FA]2 [^Fc] | BG AF | G3 C | %14
 FG A>B |[M:9/16] [Ac][G^c]/-[Gc]/[^Fd]-[Fd]/[DGB] |[M:2/4] [CFA][=B,F] [CEA]>[_B,EG] | %17
[M:3/8] [A,F]3 |] %18
V:2
 z2 z [F,A,] | [F,A,C][E,A,^C] [D,A,D][C,=C] | [F,CF] [F,A,C]2 [F,A,] | [C,C][C,C] [C,C][C,C] | %4
 [F,CF]3 [E,B,] | [F,A,C][A,,A,] [D,A,][C,C] | [F,CF] [F,A,C]2 [^F,C_E] | %7
 [G,CE][G,E] [G,DF][G,=B,F] |[M:3/8][K:bass] [C,C]3 |[M:1/8] [C,C] | %10
[M:2/4] [C,C][C,B,] [C,G,][C,B,] | [F,A,] [F,C]2 [D,D] | [G,DG][E,C] [F,CF][A,C] | %13
 [CE]3[K:bass] C, | F,G, A,>[G,B,G] |[M:9/16] [F,A,][E,A,]/-[E,A,]/[D,A,]-[D,A,]/B,, | %16
[M:2/4] C,D, C,>C, |[M:3/8] F,3 |] %18

